X:1
T:[ID 2-32]
T:[ID 2-32]
T:Bezeichnung standardisiert: Menuett Menuet
T:Urheber unbekannt Erstbeleg: 1767 (Datum in der schriftlichen Quelle) Datum in der hier transkribierten schriftlichen Quelle: 1799
C:Urheber unbekannt
C:Erstbeleg: 1767 (Datum in der schriftlichen Quelle)
C:Datum in der hier transkribierten schriftlichen Quelle: 1799
%%score 1 2
L:1/8
M:3/4
K:Bb
V:1 treble nm="Violino Primo"
V:2 treble nm="Secondo"
V:1
 fd B2 B2 | gf f4 | edcgfe | (3dcB (3ABc B2 | cA F2 F2 | dc c4 | (3GAB A2 TG2 |{G} F6 :: fdBFG_A | %9
 GFED E2 | g^ecGAB | AG{G} F4 | fd B2 B2 | Bfga b2 | Bc d2 Tc2 |{c} B6 :| %16
V:2
 !fermata!dB F2 D2 | Ed d4 | cBAedc | (3Bcd (3cBA B2 | Ac A2 A2 | BA A4 | (3BAG F2 T^E2 |{E} D6 :: %8
 dB GDEF | EDEF E2 | ^ec A^EFG | F^E{E} F4 | dB F2 D2 | Ddec d2 | DE F2 TE2 |{E} D6 :| %16

